svg/blobs-icons/no-decorations/credit-card.svg

<svg xmlns="http://www.w3.org/2000/svg" xmlns:xlink="http://www.w3.org/1999/xlink" preserveAspectRatio="xMidYMid" width="216" height="144" viewBox="0 0 216 144"><defs><style>.cls-3{fill:#0cb04a}.cls-4{fill:#000;opacity:.35}.cls-5{fill:#ff3a2f}.cls-6{fill:#142a3b}.cls-7{fill:#ededed}</style></defs><g id="group-49svg"><path d="M193.084-.004s-170.636.0-170.636.0C10.069-.004-.004 10.063-.004 22.447v98.786c0 12.383 10.073 22.451 22.452 22.451H193.084c12.379.0 22.452-10.068 22.452-22.451V22.447c0-12.384-10.073-22.451-22.452-22.451z" id="path-1" class="cls-3" fill-rule="evenodd"/><path d="M204.528 3.165C206.527 6.521 207.698 10.426 207.698 14.609v98.786c0 12.383-10.073 22.451-22.453 22.451H14.61C10.427 135.846 6.522 134.676 3.165 132.677c3.92 6.577 11.085 11.006 19.283 11.006H193.083c12.38.0 22.453-10.067 22.453-22.45V22.446C215.536 14.247 211.106 7.085 204.528 3.165z" id="path-2" class="cls-4" fill-rule="evenodd"/><path d="M35.919 89.8s35.923.0 35.923.0c2.483.0 4.491 2.009 4.491 4.491C76.333 96.774 74.325 98.781 71.842 98.781H35.919C33.437 98.781 31.429 96.774 31.429 94.291c0-2.482 2.008-4.491 4.49-4.491z" id="path-3" class="cls-5" fill-rule="evenodd"/><path d="M89.804 116.742s-53.885.0-53.885.0c-2.482.0-4.49-2.00700000000001-4.49-4.491C31.429 109.771 33.437 107.761 35.919 107.761H89.804C92.286 107.761 94.295 109.771 94.295 112.251c0 2.48399999999999-2.009 4.491-4.491 4.491z" id="path-4" class="cls-6" fill-rule="evenodd"/><path d="M188.593 67.35C188.593 69.832 186.585 71.84 184.103 71.84H148.179C145.697 71.84 143.689 69.832 143.689 67.35V31.427C143.689 28.946 145.697 26.937 148.179 26.937h35.924C186.585 26.937 188.593 28.946 188.593 31.427V67.35z" id="path-5" class="cls-7" fill-rule="evenodd"/><path d="M191.941 34.775S188.593 34.775 188.593 34.775s0 32.575.0 32.575C188.593 69.831 186.585 71.84 184.103 71.84H151.527S151.527 75.187 151.527 75.187C151.527 77.669 153.535 79.677 156.017 79.677h35.924C194.423 79.677 196.431 77.669 196.431 75.187V39.265C196.431 36.784 194.423 34.775 191.941 34.775z" id="path-6" class="cls-4" fill-rule="evenodd"/></g></svg>

<svg xmlns="http://www.w3.org/2000/svg" xmlns:xlink="http://www.w3.org/1999/xlink" preserveAspectRatio="xMidYMid" width="216" height="144" viewBox="0 0 216 144">
  <defs>
    <style>

      .cls-3 {
        fill: #0cb04a;
      }

      .cls-4 {
        fill: #000000;
        opacity: 0.35;
      }

      .cls-5 {
        fill: #ff3a2f;
      }

      .cls-6 {
        fill: #142a3b;
      }

      .cls-7 {
        fill: #ededed;
      }
    </style>
  </defs>
  <g id="group-49svg">
    <path d="M193.084,-0.004 C193.084,-0.004 22.448,-0.004 22.448,-0.004 C10.069,-0.004 -0.004,10.063 -0.004,22.447 C-0.004,22.447 -0.004,121.233 -0.004,121.233 C-0.004,133.616 10.069,143.684 22.448,143.684 C22.448,143.684 193.084,143.684 193.084,143.684 C205.463,143.684 215.536,133.616 215.536,121.233 C215.536,121.233 215.536,22.447 215.536,22.447 C215.536,10.063 205.463,-0.004 193.084,-0.004 Z" id="path-1" class="cls-3" fill-rule="evenodd"/>
    <path d="M204.528,3.165 C206.527,6.521 207.698,10.426 207.698,14.609 C207.698,14.609 207.698,113.395 207.698,113.395 C207.698,125.778 197.625,135.846 185.245,135.846 C185.245,135.846 14.610,135.846 14.610,135.846 C10.427,135.846 6.522,134.676 3.165,132.677 C7.085,139.254 14.250,143.683 22.448,143.683 C22.448,143.683 193.083,143.683 193.083,143.683 C205.463,143.683 215.536,133.616 215.536,121.233 C215.536,121.233 215.536,22.446 215.536,22.446 C215.536,14.247 211.106,7.085 204.528,3.165 Z" id="path-2" class="cls-4" fill-rule="evenodd"/>
    <path d="M35.919,89.800 C35.919,89.800 71.842,89.800 71.842,89.800 C74.325,89.800 76.333,91.809 76.333,94.291 C76.333,96.774 74.325,98.781 71.842,98.781 C71.842,98.781 35.919,98.781 35.919,98.781 C33.437,98.781 31.429,96.774 31.429,94.291 C31.429,91.809 33.437,89.800 35.919,89.800 Z" id="path-3" class="cls-5" fill-rule="evenodd"/>
    <path d="M89.804,116.742 C89.804,116.742 35.919,116.742 35.919,116.742 C33.437,116.742 31.429,114.735 31.429,112.251 C31.429,109.771 33.437,107.761 35.919,107.761 C35.919,107.761 89.804,107.761 89.804,107.761 C92.286,107.761 94.295,109.771 94.295,112.251 C94.295,114.735 92.286,116.742 89.804,116.742 Z" id="path-4" class="cls-6" fill-rule="evenodd"/>
    <path d="M188.593,67.350 C188.593,69.832 186.585,71.840 184.103,71.840 C184.103,71.840 148.179,71.840 148.179,71.840 C145.697,71.840 143.689,69.832 143.689,67.350 C143.689,67.350 143.689,31.427 143.689,31.427 C143.689,28.946 145.697,26.937 148.179,26.937 C148.179,26.937 184.103,26.937 184.103,26.937 C186.585,26.937 188.593,28.946 188.593,31.427 C188.593,31.427 188.593,67.350 188.593,67.350 Z" id="path-5" class="cls-7" fill-rule="evenodd"/>
    <path d="M191.941,34.775 C191.941,34.775 188.593,34.775 188.593,34.775 C188.593,34.775 188.593,67.350 188.593,67.350 C188.593,69.831 186.585,71.840 184.103,71.840 C184.103,71.840 151.527,71.840 151.527,71.840 C151.527,71.840 151.527,75.187 151.527,75.187 C151.527,77.669 153.535,79.677 156.017,79.677 C156.017,79.677 191.941,79.677 191.941,79.677 C194.423,79.677 196.431,77.669 196.431,75.187 C196.431,75.187 196.431,39.265 196.431,39.265 C196.431,36.784 194.423,34.775 191.941,34.775 Z" id="path-6" class="cls-4" fill-rule="evenodd"/>
  </g>
</svg>
